svgs/solid/box-ballot.svg

<svg xmlns="http://www.w3.org/2000/svg" viewBox="0 0 576 512"><!--! Font Awesome Pro 6.6.0 by @fontawesome - https://fontawesome.com License - https://fontawesome.com/license (Commercial License) Copyright 2024 Fonticons, Inc. --><path d="M128 32c0-17.7 14.3-32 32-32L416 0c17.7 0 32 14.3 32 32l0 192-320 0 0-192zM0 352l576 0 0 112c0 26.5-21.5 48-48 48L48 512c-26.5 0-48-21.5-48-48L0 352zM48 160l48 0 0 96 384 0 0-96 48 0c26.5 0 48 21.5 48 48l0 112L0 320 0 208c0-26.5 21.5-48 48-48z"/></svg>

<svg xmlns="http://www.w3.org/2000/svg" viewBox="0 0 576 512"><!--! Font Awesome Pro 6.4.0 by @fontawesome - https://fontawesome.com License - https://fontawesome.com/license (Commercial License) Copyright 2023 Fonticons, Inc. --><path d="M128 32c0-17.7 14.3-32 32-32H416c17.7 0 32 14.3 32 32V224H128V32zM0 352H576V464c0 26.5-21.5 48-48 48H48c-26.5 0-48-21.5-48-48V352zM48 160H96v96H480V160h48c26.5 0 48 21.5 48 48V320H0V208c0-26.5 21.5-48 48-48z"/></svg>
